src/lib/packages/icons/src/assets/line/bell.svg

<svg xmlns="http://www.w3.org/2000/svg" width="24" height="24" fill="none"><path fill="currentColor" d="M12 21.75a2.73 2.73 0 0 1-2.378-1.372.75.75 0 0 1 1.296-.756c.459.787 1.705.787 2.164 0a.751.751 0 0 1 1.296.756A2.73 2.73 0 0 1 12 21.75Zm8.675-3.425a.751.751 0 0 0-.089-.793c-.019-.023-1.841-2.343-1.841-5.032V8.995A6.753 6.753 0 0 0 12 2.25a6.753 6.753 0 0 0-6.745 6.745V12.5c0 2.689-1.822 5.009-1.841 5.032A.751.751 0 0 0 4 18.75h16a.75.75 0 0 0 .675-.425ZM6.755 12.5V8.995A5.251 5.251 0 0 1 12 3.75a5.251 5.251 0 0 1 5.245 5.245V12.5c0 1.936.75 3.658 1.368 4.75H5.386c.619-1.092 1.369-2.814 1.369-4.75Z"/></svg>

<svg width="24" height="24" viewBox="0 0 24 24" fill="none" xmlns="http://www.w3.org/2000/svg">
<path d="M12 21.75C11.012 21.75 10.124 21.237 9.62199 20.378C9.41399 20.02 9.534 19.561 9.892 19.352C10.248 19.144 10.708 19.264 10.918 19.622C11.377 20.409 12.623 20.409 13.082 19.622C13.291 19.264 13.751 19.144 14.108 19.352C14.466 19.56 14.587 20.02 14.378 20.378C13.876 21.237 12.988 21.75 12 21.75ZM20.675 18.325C20.8 18.065 20.765 17.757 20.586 17.532C20.567 17.509 18.745 15.189 18.745 12.5V8.995C18.745 5.276 15.719 2.25 12 2.25C8.281 2.25 5.25499 5.276 5.25499 8.995V12.5C5.25499 15.189 3.433 17.509 3.414 17.532C3.235 17.757 3.19999 18.066 3.32499 18.325C3.44999 18.584 3.712 18.75 4 18.75H20C20.288 18.75 20.55 18.584 20.675 18.325ZM6.75499 12.5V8.995C6.75499 6.103 9.108 3.75 12 3.75C14.892 3.75 17.245 6.103 17.245 8.995V12.5C17.245 14.436 17.995 16.158 18.613 17.25H5.386C6.005 16.158 6.75499 14.436 6.75499 12.5Z" fill="currentColor"/>
</svg>
